svg/media/rotate_to_horizontal_fill.svg

<?xml version="1.0" encoding="UTF-8"?>
<svg width="24px" height="24px" viewBox="0 0 24 24" version="1.1" xmlns="http://www.w3.org/2000/svg" xmlns:xlink="http://www.w3.org/1999/xlink">
    <title>rotate_to_horizontal_fill</title>
    <g id="Icon" stroke="none" stroke-width="1" fill="none" fill-rule="evenodd">
        <g id="Media" transform="translate(-480.000000, -240.000000)" fill-rule="nonzero">
            <g id="rotate_to_horizontal_fill" transform="translate(480.000000, 240.000000)">
                <path d="M24,0 L24,24 L0,24 L0,0 L24,0 Z M12.5934901,23.257841 L12.5819402,23.2595131 L12.5108777,23.2950439 L12.4918791,23.2987469 L12.4918791,23.2987469 L12.4767152,23.2950439 L12.4056548,23.2595131 C12.3958229,23.2563662 12.3870493,23.2590235 12.3821421,23.2649074 L12.3780323,23.275831 L12.360941,23.7031097 L12.3658947,23.7234994 L12.3769048,23.7357139 L12.4804777,23.8096931 L12.4953491,23.8136134 L12.4953491,23.8136134 L12.5071152,23.8096931 L12.6106902,23.7357139 L12.6232938,23.7196733 L12.6232938,23.7196733 L12.6266527,23.7031097 L12.609561,23.275831 C12.6075724,23.2657013 12.6010112,23.2592993 12.5934901,23.257841 L12.5934901,23.257841 Z M12.8583906,23.1452862 L12.8445485,23.1473072 L12.6598443,23.2396597 L12.6498822,23.2499052 L12.6498822,23.2499052 L12.6471943,23.2611114 L12.6650943,23.6906389 L12.6699349,23.7034178 L12.6699349,23.7034178 L12.678386,23.7104931 L12.8793402,23.8032389 C12.8914285,23.8068999 12.9022333,23.8029875 12.9078286,23.7952264 L12.9118235,23.7811639 L12.8776777,23.1665331 C12.8752882,23.1545897 12.8674102,23.1470016 12.8583906,23.1452862 L12.8583906,23.1452862 Z M12.1430473,23.1473072 C12.1332178,23.1423925 12.1221763,23.1452606 12.1156365,23.1525954 L12.1099173,23.1665331 L12.0757714,23.7811639 C12.0751323,23.7926639 12.0828099,23.8018602 12.0926481,23.8045676 L12.108256,23.8032389 L12.3092106,23.7104931 L12.3186497,23.7024347 L12.3186497,23.7024347 L12.3225043,23.6906389 L12.340401,23.2611114 L12.337245,23.2485176 L12.337245,23.2485176 L12.3277531,23.2396597 L12.1430473,23.1473072 Z" id="MingCute"></path>
                <path d="M3,5 C3,3.89543 3.89543,3 5,3 L11,3 C12.1046,3 13,3.89543 13,5 L13,9 C13,9.55228 12.5523,10 12,10 C11.4477,10 11,9.55228 11,9 L11,5 L5,5 L5,9 C5,9.55228 4.55228,10 4,10 C3.44772,10 3,9.55228 3,9 L3,5 Z M18.7167,4.76227 C19.2606,4.66637 19.7792,5.02954 19.8751,5.57343 L20.2891,7.92099 C20.4063,8.58557 19.9383,9.0132 19.5848,9.14706 C19.232,9.28062 18.605,9.27035 18.2501,8.70478 L18.0348206,8.37185119 C17.4327924,7.4668626 16.3607647,6.05984235 15.015,5.11756 C14.5626,4.80078 14.4527,4.17724 14.7695,3.72483 C15.0862,3.27243 15.7098,3.16248 16.1622,3.47926 C16.8794,3.98143 17.5201,4.57869 18.0697,5.17564 C18.2164,4.96491 18.4438,4.81039 18.7167,4.76227 Z M3,19 C3,20.1046 3.89543,21 5,21 L19,21 C20.1046,21 21,20.1046 21,19 L21,13 C21,11.8954 20.1046,11 19,11 L5,11 C3.89543,11 3,11.8954 3,13 L3,19 Z" id="形状" fill="#09244B"></path>
            </g>
        </g>
    </g>
</svg>

<svg xmlns="http://www.w3.org/2000/svg" width="24" height="24"><g fill="none" fill-rule="nonzero"><path d="M24 0v24H0V0h24ZM12.593 23.258l-.011.002-.071.035-.02.004-.014-.004-.071-.035c-.01-.004-.019-.001-.024.005l-.004.01-.017.428.005.02.01.013.104.074.015.004.012-.004.104-.074.012-.016.004-.017-.017-.427c-.002-.01-.009-.017-.017-.018Zm.265-.113-.013.002-.185.093-.01.01-.003.011.018.43.005.012.008.007.201.093c.012.004.023 0 .029-.008l.004-.014-.034-.614c-.003-.012-.01-.02-.02-.022Zm-.715.002a.023.023 0 0 0-.027.006l-.006.014-.034.614c0 .012.007.02.017.024l.015-.002.201-.093.01-.008.004-.011.017-.43-.003-.012-.01-.01-.184-.092Z"/><path fill="#09244B" d="M3 5a2 2 0 0 1 2-2h6a2 2 0 0 1 2 2v4a1 1 0 1 1-2 0V5H5v4a1 1 0 0 1-2 0V5Zm15.717-.238a1 1 0 0 1 1.158.811l.414 2.348c.117.665-.35 1.092-.704 1.226-.353.134-.98.123-1.335-.442l-.215-.333c-.602-.905-1.674-2.312-3.02-3.254a1 1 0 0 1 1.147-1.639c.717.502 1.358 1.1 1.908 1.697a.997.997 0 0 1 .647-.414ZM3 19a2 2 0 0 0 2 2h14a2 2 0 0 0 2-2v-6a2 2 0 0 0-2-2H5a2 2 0 0 0-2 2v6Z"/></g></svg>
